X:1
T:Under the Shadow of Thy Wing
T:Under the Shadow of Thy Wing
T:Frederic Henry Pease
T:Margarette W. Snodgrass, 1878
T:Public Domain Courtesy of the Cyber Hymnal™
T:Public Domain Courtesy of the Cyber Hymnal™
C:Frederic Henry Pease
Z:Public Domain
Z:Courtesy of the Cyber Hymnal™
%%score ( 1 2 ) 3 ( 4 5 )
L:1/8
Q:1/4=93
M:4/4
K:C
V:1 treble 
V:2 treble 
V:3 treble 
V:4 bass 
V:5 bass 
V:1
 E2 E>F G3 G | A2 d2 c4 | E2 E>F G3 G | (AG) (FE) D3 z | G2 c>d e3 d | c2 (BA) G4 | %6
w: 1.~I will re- joice with|glad- ness deep,|While in Thy care I|wake * or * sleep;|Close to Thy side will|ev- er * cling,|
w: 2.~I will re- joice that|Thou art near,|Thou wilt the faint- est|whis- * per * hear;|Dark- ness may come, but|I will * sing,|
w: 3.~I will re- joice, my|heart doth leap;|To Thee in dan- ger|I * will * creep;|Count- ing it joy all|pain to * bring,|
w: 4.~Safe in its shel- ter|I would hide,|There let me ev- er-|more * a- * bide;|I can re- joice in|ev- ery- * thing,|
 ^F2 F>F GG z E | GFEF E3 z | A2 B>c cG z E | GFED C4 ||"^Refrain" [Ge]2 [EG]>[EG] [FA]2 [EG]2 | %11
w: Un- der the sha- dow, the|sha- dow of Thy wing,|Un- der the sha- dow, the|sha- dow of Thy wing.||
w: Un- der the sha- dow, the|sha- dow of Thy wing,|Un- der the sha- dow, the|sha- dow of Thy wing.|Morn- ing and ev- ening|
w: Un- der the sha- dow, the|sha- dow of Thy wing,|Un- der the sha- dow, the|sha- dow of Thy wing.||
w: Un- der the sha- dow, the|sha- dow of Thy wing,|Un- der the sha- dow, the|sha- dow of Thy wing.||
 [Ec]2 [EG]2 [FA]4 | [^FA]2 [FA]>[FA] [GB][GB] z [GB] x | [Bd][Ac][GB][Ac] [GB]4 | %14
w: |||
w: I will sing,|Un- der the sha- dow, the|sha- dow of Thy wing,|
w: |||
w: |||
 [Gc]2 [EG]>[EG] [FA]2 [EG]2 | [Ge]2 [EG]2 [FA]4 | [Ac]2 [GB]>[FA] [FA][EG] z2 | %17
w: |||
w: Morn- ing and ev- ening|I will sing,|Un- der the sha- dow,|
w: |||
w: |||
 [CE]2 [CE]>[CE] [CF][CE] z2 | [^D^F]2 [DF]>[DF] [EG][EG] z [CE] | [B,G][DF][CE][B,D] C4 |] %20
w: |||
w: un- der the sha- dow,|Un- der the sha- dow, the|sha- dow of Thy wing.|
w: |||
w: |||
V:2
 x8 | x8 | x8 | x8 | x8 | x8 | x8 | x8 | x8 | x8 || x8 | x8 | x9 | x8 | x8 | x8 | x8 | x8 | x8 | %19
 x4 C4 |] %20
V:3
 z (G,[CE]G,) z (G,[CE]G,) | z (G,[B,DF]G,) z (G,[CE]G,) | z (G,[CE]G,) z (G,[CE]G,) | %3
 z (G,[B,DF][CE]) z (G,[DF][^D^F]) | [EG]2 [Ec]>[Fd] [Ge]3 [^Gd] | [Ac]2 ([GB][^FA]) [EG]4 | %6
 z [A,C^F] z [C^DF] z [CEG] z [CEG] | z G,[B,G]G, z (G,[CE]G,) | [C_EA]2 z2 [C=EG]2 z2 | x8 || x8 | %11
 x8 | x9 | x8 | x8 | x8 | x8 | x8 | x8 | x8 |] %20
V:4
 [C,,C,]2 z2 [C,,C,]2 z2 | [C,,C,]2 z2 [C,,C,]2 z2 | [C,,C,]2 z2 [C,,C,]2 z2 | %3
 [C,,C,]2 z2 [B,,,G,,]2 z2 | C,G,CG, C,G,CB, | A,A,,(B,,^D,) (E,G,E,C,) | A,,^D,C,A,, G,,G,E,C, | %7
 G,,2 z2 C,2 z2 | [^F,,^F,]2 z2 [G,,G,]2 z2 | [B,,,G,,F,G,B,]4 [C,,C,E,G,C]4 || %10
 [C,C]2 [C,C]>[C,C] [C,C]2 [C,C]2 | [C,C]2 [C,C]2 [F,C]4 | [D,D]2 [D,D]>[D,D] D4- z | %13
 [D,D][D,D][D,D][D,D] [G,D]4 | [CE]2 [C,C]>[C,C] [C,C]2 [C,C]2 | C2 [C,C]2 [F,C]4 | z8 | %17
 [C,G,]2 [C,G,]>[C,G,] [C,A,][C,G,] z2 | [A,,C]2 [A,,C]>[A,,C] CC z G, | %19
 [G,,G,][G,,G,][G,,G,][G,,F,] [C,E,]4 |] %20
V:5
 x8 | x8 | x8 | x8 | x8 | x8 | x8 | x8 | x8 | x8 || x8 | x8 | x4 D,D,D, x2 | x8 | x8 | C2 x6 | x8 | %17
 x8 | x4 G,,4- | x8 |] %20

